X: 38847
T: Sunbrite, The
R: hornpipe
M: 4/4
K: Dmajor
|:(3FG^G|AdBA FBAF|EGFE D2ED|A,DFA [F2d2]cd|1 (3efe (3dcB A2:|2 (3efe dc d2||
K:Dmix
|:AB|c2Bc d2^cd|(3fff (3fff fdcA|gfga gfeg|~f3g fedA|
c2 c2 d3z|f3z fedB|~g3a gfeg|(3efe dc d2:|

